rospo-icon-theme-classic-common/64x64/apps/gelemental.svg

<svg height="64" width="64" xmlns="http://www.w3.org/2000/svg"><path d="m29.601562 5c-3.1024 0-5.601562 2.4991626-5.601562 5.601562v16.796876c0 .36635.03894.723944.10546 1.070312a9.4811476 7.7379792 0 0 0 -.316406.398438l-7.257812 10.265624-7.2617188 10.26172a9.4811476 7.7379792 0 0 0 8.2109458 11.605468h14.519531 14.519532a9.4811476 7.7379792 0 0 0 8.210936-11.605468l-7.261718-10.26172-7.257812-10.265624a9.4811476 7.7379792 0 0 0 -.316406-.398438c.066538-.346368.105468-.703962.105468-1.070312v-16.796876c0-3.1023994-2.499162-5.601562-5.601562-5.601562z" opacity=".2"/><rect fill="#e4e4e4" height="28" ry="5.6" width="16" x="24" y="4"/><path d="m32.446272 24.008538a9.4811476 7.7379792 0 0 0 -8.65563 3.85964l-7.260815 10.263296-7.2608194 10.26329a9.4811476 7.7379792 0 0 0 8.2110554 11.605236h14.519935 14.51994a9.4811476 7.7379792 0 0 0 8.211056-11.605236l-7.26082-10.26329-7.259122-10.263294a9.4811476 7.7379792 0 0 0 -7.76478-3.859642z" fill="#e4e4e4"/><g fill="#b343ff"><path d="m33 12a3 3 0 0 0 -3 3 3 3 0 0 0 3 3 3 3 0 0 0 3-3 3 3 0 0 0 -3-3z"/><path d="m29 20a3 3 0 0 0 -3 3 3 3 0 0 0 3 3 3 3 0 0 0 3-3 3 3 0 0 0 -3-3z"/><path d="m35 26a3 3 0 0 0 -3 3 3 3 0 0 0 3 3 3 3 0 0 0 3-3 3 3 0 0 0 -3-3z"/><path d="m29 34a3 3 0 0 0 -3 3 3 3 0 0 0 3 3 3 3 0 0 0 3-3 3 3 0 0 0 -3-3z"/><path d="m21.38677 44.000742-2.638399 3.978516c-2.126796 3.209832.532678 6.02075 4.787381 6.020742h8.464246 8.46425c4.254702.000006 6.914176-2.81091 4.78738-6.020742l-2.6384-3.978516z"/></g><path d="m29.601562 4c-3.1024 0-5.601562 2.4991631-5.601562 5.6015625v.9999995c0-3.1023989 2.499162-5.601562 5.601562-5.601562h4.796876c3.1024 0 5.601562 2.4991631 5.601562 5.601562v-.9999995c0-3.1023994-2.499162-5.6015625-5.601562-5.6015625zm-5.591796 23.589844a9.4811476 7.7379792 0 0 0 -.220704.277344l-7.257812 10.265624-7.2617188 10.261719a9.4811476 7.7379792 0 0 0 -1.2421874 4.431641 9.4811476 7.7379792 0 0 1 1.2421874-3.431641l7.2617188-10.261719 7.257812-10.265624a9.4811476 7.7379792 0 0 1  .316407-.398438c-.054795-.285315-.084686-.579737-.095703-.878906zm15.980468 0c-.011015.299169-.040893.593591-.095703.878906a9.4811476 7.7379792 0 0 1  .316407.398438l7.257812 10.265624 7.261719 10.261719a9.4811476 7.7379792 0 0 1 1.24414 3.425781 9.4811476 7.7379792 0 0 0 -1.24414-4.425781l-7.261719-10.261719-7.257812-10.265624a9.4811476 7.7379792 0 0 0 -.220704-.277344z" fill="#fff" opacity=".2"/></svg>

<svg xmlns="http://www.w3.org/2000/svg" width="64" height="64" version="1">
 <path style="opacity:0.2" d="M 29.601562,5 C 26.499162,5 24,7.4991626 24,10.601562 l 0,16.796876 c 0,0.36635 0.03894,0.723944 0.10546,1.070312 a 9.4811476,7.7379792 0 0 0 -0.316406,0.398438 L 16.531242,39.132812 9.2695232,49.394532 A 9.4811476,7.7379792 0 0 0 17.480469,61 L 32,61 46.519532,61 A 9.4811476,7.7379792 0 0 0 54.730468,49.394532 L 47.46875,39.132812 40.210938,28.867188 A 9.4811476,7.7379792 0 0 0 39.894532,28.46875 C 39.96107,28.122382 40,27.764788 40,27.398438 L 40,10.601562 C 40,7.4991626 37.500838,5 34.398438,5 l -4.796876,0 z"/>
 <rect style="fill:#cccccc" width="16" height="28" x="24" y="4" ry="5.6"/>
 <path style="fill:#cccccc" d="m 32.446272,24.008538 a 9.4811476,7.7379792 0 0 0 -8.65563,3.85964 L 16.529827,38.131474 9.2690076,48.394764 A 9.4811476,7.7379792 0 0 0 17.480063,60 l 14.519935,0 14.51994,0 A 9.4811476,7.7379792 0 0 0 54.730994,48.394764 L 47.470174,38.131474 40.211052,27.86818 a 9.4811476,7.7379792 0 0 0 -7.76478,-3.859642 z"/>
 <path style="fill:#b343ff" d="m 33,12 a 3,3 0 0 0 -3,3 3,3 0 0 0 3,3 3,3 0 0 0 3,-3 3,3 0 0 0 -3,-3 z"/>
 <path style="fill:#b343ff" d="m 29,20 a 3,3 0 0 0 -3,3 3,3 0 0 0 3,3 3,3 0 0 0 3,-3 3,3 0 0 0 -3,-3 z"/>
 <path style="fill:#b343ff" d="m 35,26 a 3,3 0 0 0 -3,3 3,3 0 0 0 3,3 3,3 0 0 0 3,-3 3,3 0 0 0 -3,-3 z"/>
 <path style="fill:#b343ff" d="m 29,34 a 3,3 0 0 0 -3,3 3,3 0 0 0 3,3 3,3 0 0 0 3,-3 3,3 0 0 0 -3,-3 z"/>
 <path style="fill:#b343ff" d="m 21.38677,44.000742 -2.638399,3.978516 C 16.621575,51.18909 19.281049,54.000008 23.535752,54 l 8.464246,0 8.46425,0 c 4.254702,6e-6 6.914176,-2.81091 4.78738,-6.020742 l -2.6384,-3.978516 z"/>
 <path style="opacity:0.2;fill:#ffffff" d="M 29.601562 4 C 26.499162 4 24 6.4991631 24 9.6015625 L 24 10.601562 C 24 7.4991631 26.499162 5 29.601562 5 L 34.398438 5 C 37.500838 5 40 7.4991631 40 10.601562 L 40 9.6015625 C 40 6.4991631 37.500838 4 34.398438 4 L 29.601562 4 z M 24.009766 27.589844 A 9.4811476 7.7379792 0 0 0 23.789062 27.867188 L 16.53125 38.132812 L 9.2695312 48.394531 A 9.4811476 7.7379792 0 0 0 8.0273438 52.826172 A 9.4811476 7.7379792 0 0 1 9.2695312 49.394531 L 16.53125 39.132812 L 23.789062 28.867188 A 9.4811476 7.7379792 0 0 1 24.105469 28.46875 C 24.050674 28.183435 24.020783 27.889013 24.009766 27.589844 z M 39.990234 27.589844 C 39.979219 27.889013 39.949341 28.183435 39.894531 28.46875 A 9.4811476 7.7379792 0 0 1 40.210938 28.867188 L 47.46875 39.132812 L 54.730469 49.394531 A 9.4811476 7.7379792 0 0 1 55.974609 52.820312 A 9.4811476 7.7379792 0 0 0 54.730469 48.394531 L 47.46875 38.132812 L 40.210938 27.867188 A 9.4811476 7.7379792 0 0 0 39.990234 27.589844 z"/>
</svg>
